X: 303
T: 304. Auf meinen lieben Gott
N: Derived from chor304.krn
C: Johann Sebastian Bach
%%abc-version 2.0
%%abcx-abcm2ps-target-version 5.9.1 (29 Sep 2008)
%%abc-creator hum2abc beta
%%abcx-conversion-date 2019/03/11 17:28:19
%%abc-edited-by Craig Stuart Sapp
%%humdrum-veritas 505151723
%%humdrum-veritas-data 3267244616
%%
%%barnumbers 0
L: 1/4
M: C
%%staves [1 2 3 4]
V: 1 clef=treble
V: 2 clef=treble
V: 3 clef=treble-8
V: 4 clef=bass
K: Bb
[V:1] G [I:setbarnb 1]| 
[V:2] D | 
[V:3] B | 
[V:4] G, | 
[V:1] GABc | 
[V:2] E=E/^F/GG | 
[V:3] ccd_e | 
[V:4] C/B,/A,G,/=F,/_E, | 
[V:1] !fermata!d3d | 
[V:2] !fermata!^F3F | 
[V:3] !fermata!A3A | 
[V:4] !fermata!D,3C, | 
[V:1] dcBc | 
[V:2] GG/^F/GA | 
[V:3] Bcde | 
[V:4] B,,A,,G,,C, | 
[V:1] !fermata!A3A | 
[V:2] !fermata!^F3F | 
[V:3] !fermata!d3d | 
[V:4] !fermata!D,3D, | 
[V:1] Bcdd | 
[V:2] GABB | 
[V:3] deff | 
[V:4] G,=F,/E,/ D,/C,/B,, | 
[V:1] c2!fermata!dd | 
[V:2] BA/G/!fermata!A^F | 
[V:3] gf/e/!fermata!dA | 
[V:4] E,F,!fermata!^F,D, | 
[V:1] Bcdd | 
[V:2] DCFG | 
[V:3] B=f/e/ d/c/B | 
[V:4] G,A,B,/A,/ G,/F,/ | 
[V:1] c2!fermata!Bd | 
[V:2] GF/E/!fermata!DF | 
[V:3] BA!fermata!FB | 
[V:4] E,F,!fermata!B,,B, | 
[V:1] fddd | 
[V:2] FF/G/AG | 
[V:3] cdd/c/B | 
[V:4] A,B,^F,G,/=F,/ | 
[V:1] c2!fermata!cc | 
[V:2] G/F/G/=E/!fermata!FF/_E/ | 
[V:3] B/A/B/G/!fermata!AA | 
[V:4] =E,C,!fermata!F,F, | 
[V:1] dcBc | 
[V:2] D=E/^F/GG | 
[V:3] BAG/B/e | 
[V:4] B,,C,/D,/_E,D,/C,/ | 
[V:1] A2!fermata!G |]  
[V:2] G^F!fermata!D |]  
[V:3] d/c//B//c!fermata!=B |]  
[V:4] D,2!fermata!G,, |]  



